X: 2562
T: Ballykett Courthouse
R: reel
M: 4/4
K: Dmajor
~A3B AFED|B,EED EFGE|AdB^G AFED|1 B,DDC D2FG:|2 B,DDC D2FA||
|:d2cd BAFA|Beed edBc|d2cd BAFA|1 (3Bcd ce ~d3c:|2 (3Bcd ce dfdB||

